X:87
T:Prince Edward's Jig
M:6/8
L:1/8
B:Thompson's Compleat Collection of 200 Favourite Country Dances, vol. 1 (London, 1757)
Z:Transcribed and edited by Fynnian Titford-Mock, 2007
Z:abc's:AK/Fiddler's Companion
K:Gmin
d|g2d B2A|BAB G2d|gab a2g|^f=ef d2=f|b2f d2c|dcd B2F|GAB FBA|B3 B,2:|
|:d|=Bcd def|ede c2B|ABc cde|dcd B2A|GAB Bcd|cde d2g|^f2g BcA|(G3 G2):|

